X: 100422
T: OLD WOODHOUSELEE REEL
C: Com. by G. Duncan, Esq.
R: reel
B: K\"ohler's Violin Repository, v.3, 1885 p.271 #3
F: http://www.archive.org/details/klersviolinrepos03rugg
Z: 2012 John Chambers <jc:trillian.mit.edu>
M: C|
L: 1/8
K: G
|:\
vBG B,D CED2 | (BG)CE B,DA,2 | (BG)B,D CED2 | [1(EG)Ac BGFD :|[2 EGAc BGG2 |]
vggbf gdBG | ceBd AGFD | ggbf gdBG | (Ac)Ad BGG2 |
ggbf gdBG | ceBd AGFD | GBAc Bdce | (df)ga bgg2 "_D.C."|]

%%sep 2 1 500

